X:1
T:Title
%%score ( 1 2 ) { 3 | 4 }
L:1/8
Q:1/4=102
M:3/4
K:G
V:1 treble nm="Grand Piano, Soprano"
V:2 treble 
V:3 treble nm="Choir Pad, Castellón, Wagoner, 1883"
V:4 bass 
V:1
 [DG]2 [GB]>[GA] G2 | [GB]2 [Bd]>[Ac] [GB]2 | [DG]2 [EG]3 [EG] | [^DF][EG] [FA]4 | %4
w: By~Isaiah~Baltzell,~1883 * * *||||
 [DG]2 [GB]>[Gc] [Bd]2 | [GB]2 [EA]>[EG] [CE]2 | [Ec]2 [DB]3 [DG] | [GB][FA] G4 | .B2 z2 z2 | %9
w: |||||
 [Gd]2 [GB]>[FA] [DG]2 | [GB]2 [FA]3 [GB] | [Ac][GB] [FA]4 | [Fd]2 [GB]>[DA] [DG]2 | %13
w: ||||
 [GB]2 [Gc]>[Gd] [Ge]2 | [Ge]2 [Gd]3 [Gc] | [GB][FA] G4- | G4 z2 |] %17
w: ||||
V:2
 x6 | x6 | x6 | x6 | x6 | x6 | x6 | x6 | G-[Gc] [Gd]>[GB] [Ge]2 | x6 | x6 | x6 | x6 | x6 | x6 | %15
 x6 | x6 |] %17
V:3
 B,2 D>C B,2 | D2 D>D D2 | B,2 B,3 B, | B,B,[K:treble] D4 | B,2 D>D D2 | D2 C>C[K:bass] G,2 | %6
 G,2 G,3 B, | D[K:treble]C B,4 | D2 B,>D C2 | B,2 D>C B,2 | D2 D3 D | DD D4 | D2 D>C B,2 | %13
 D2 C>B, C2 | C2 B,3 E | DC B,4- | B,4 z2 |] %17
V:4
 G,2 G,>G, G,2 | G,2 G,>G, G,2 | G,2 E,3 E, | B,,E, D,4 | G,2 G,>G, G,2 | G,2 C,>C, C,2 | %6
 C,2 D,3 D, | D,D, G,4 | G,2 G,>G, G,2 | G,2 D,>D, G,2 | G,2 D,3 G, | F,G, D,4 | D,2 G,>G, G,2 | %13
 =F,2 E,>D, C,2 | C,2 D,3 D, | D,D, G,4- | G,4 z2 |] %17

